X:12817
T:Partie de Lancier 1
M:6/8
K:G
Bc|d^cd ed^c|d2B G2B|A2F D2c|BGE DBc|d^cd ed^c|d2B G2B|A2D cBA|G4:||Bc|d^cd ed^c|dBG DBc|d^cd edB|cAF D2A|cBc d^cd|f5 e|ded cBA|1 BGE D:||2 G4||
